libs/shared/images/icons-sharp-light/nfc-pen.svg

<svg xmlns="http://www.w3.org/2000/svg" viewBox="0 0 576 512"><defs><style>.fa-secondary{opacity:.4}</style></defs><path class="fa-secondary" d="M0 32L0 480l258 0 9-62.6 1.4-1.4L80 416l-16 0 0-16 0-288 0-16 16 0 64 0 16 0 0 32-16 0-48 0 0 256 204.4 0L352 332.4 352 128l-112 0 0 82.7c18.6 6.6 32 24.4 32 45.3c0 26.5-21.5 48-48 48s-48-21.5-48-48c0-20.9 13.4-38.7 32-45.3l0-98.7 0-16 16 0 144 0 16 0 0 16 0 188.4 64-64L448 32 0 32z"/><path class="fa-primary" d="M576 294.8l-71-71-41.3 41.3 71 71L576 294.8zm-63.9 63.9l-71-71L299.9 429 288 511.9 370.9 500 512.1 358.7z"/></svg>

<svg xmlns="http://www.w3.org/2000/svg" viewBox="0 0 576 512"><path d="M416 64H32V448H263.7l-5 32H32 0V448 64 32H32 416h32V64 220.9l-32 32V64zm-32 48V284.9l-32 32V128H240v82.7c18.6 6.6 32 24.4 32 45.3c0 26.5-21.5 48-48 48s-48-21.5-48-48c0-20.9 13.4-38.7 32-45.3V112 96h16H368h16v16zM271.7 397.2L268.7 416H80 64V400 112 96H80h64 16v32H144 96V384H284.9l-13.2 13.2zM224 240a16 16 0 1 0 0 32 16 16 0 1 0 0-32zm265.3 29.3L466.5 292 508 333.5l22.8-22.8-41.5-41.5zM334 424.5l-7.7 49.1 49.1-7.7L485.4 356.1l-41.5-41.5L334 424.5zM553.4 288.1L576 310.7l-22.6 22.6L390.7 496l-69.5 10.8L288 512l5.2-33.2L304 409.3 489.3 224l64.1 64.1z"/></svg>
